icon/cg/rename.svg

<svg viewBox="0 0 24 24" fill="none" xmlns="http://www.w3.org/2000/svg" height="1em" width="1em">
  <path fill-rule="evenodd" clip-rule="evenodd" d="M10 4H8V6H5C3.34315 6 2 7.34315 2 9V15C2 16.6569 3.34315 18 5 18H8V20H10V4ZM8 8V16H5C4.44772 16 4 15.5523 4 15V9C4 8.44772 4.44772 8 5 8H8Z" fill="currentColor"/>
  <path d="M19 16H12V18H19C20.6569 18 22 16.6569 22 15V9C22 7.34315 20.6569 6 19 6H12V8H19C19.5523 8 20 8.44771 20 9V15C20 15.5523 19.5523 16 19 16Z" fill="currentColor"/>
</svg>

<svg width="24" height="24" fill="none" xmlns="http://www.w3.org/2000/svg"><path fill-rule="evenodd" clip-rule="evenodd" d="M10 4H8v2H5a3 3 0 0 0-3 3v6a3 3 0 0 0 3 3h3v2h2V4ZM8 8v8H5a1 1 0 0 1-1-1V9a1 1 0 0 1 1-1h3Z" fill="currentColor"/><path d="M19 16h-7v2h7a3 3 0 0 0 3-3V9a3 3 0 0 0-3-3h-7v2h7a1 1 0 0 1 1 1v6a1 1 0 0 1-1 1Z" fill="currentColor"/></svg>
